X:1
T:The Quartermaster Corps
M:4/4
L:1/4
K:C
 z2 z/2 G,/2C/2 D/2| E E E3/2 D/2| E/2D/2 C/2A,/2 G, B,/2C/2| D3 C/2D/2|\
 E2 z/2 G,/2C/2 D/2| E E E3/2 D/2| E/2D/2 C/2A,/2 G, B,/2C/2| D F E D|\
 C3 G,| C C C B,| A, A, A, A,| D D D C| B, G G G,| C2 E2| F D G G|\
 C4|
